src/assets/dark/IconVotingSuccess.svg

<svg width="56" height="57" viewBox="0 0 56 57" fill="none" xmlns="http://www.w3.org/2000/svg">
<path d="M54.8363 28.5752C54.8363 43.4693 42.7623 55.5434 27.8682 55.5434C12.9741 55.5434 0.9 43.4693 0.9 28.5752C0.9 13.6811 12.9741 1.60703 27.8682 1.60703C42.7623 1.60703 54.8363 13.6811 54.8363 28.5752Z" stroke="#9B32A5" stroke-opacity="0.8" stroke-width="1.8"/>
<path d="M24.125 37.2337C24.125 38.1476 24.8738 38.8967 25.7883 38.8967H34.4121L33.3058 44.1741C33.1722 44.7942 33.3633 45.4399 33.8124 45.8857L35.1348 47.2098L43.3489 38.996C43.7996 38.5465 44.0809 37.9248 44.0809 37.2337V26.4281C44.0809 25.0479 42.9671 23.9336 41.5869 23.9336H30.361C29.331 23.9336 28.4425 24.5572 28.0663 25.4543L24.3001 34.2523C24.1921 34.5333 24.125 34.8329 24.125 35.1569V37.2356L24.125 37.2337Z" fill="url(#paint0_linear)" fill-opacity="0.5"/>
<path d="M31.9559 21.976C31.9508 21.0561 31.2076 20.313 30.2926 20.3131H21.6688L22.7751 15.0357C22.9087 14.4156 22.7176 13.7698 22.2685 13.324L20.9461 12L12.732 20.2138C12.2813 20.6633 12 21.2869 12 21.976V32.7817C12 34.1619 13.1138 35.2762 14.494 35.2762H25.7199C26.7499 35.2762 27.6384 34.6526 28.0146 33.7555L31.7808 24.9612C31.8888 24.6784 31.9559 24.3788 31.9559 24.0548V21.976Z" fill="url(#paint1_linear)"/>
<defs>
<linearGradient id="paint0_linear" x1="-23.1741" y1="0.518708" x2="49.9832" y2="35.1462" gradientUnits="userSpaceOnUse">
<stop stop-color="#E9507D"/>
<stop offset="1" stop-color="#9B32A5"/>
</linearGradient>
<linearGradient id="paint1_linear" x1="-35.2991" y1="-11.4149" x2="37.8582" y2="23.2126" gradientUnits="userSpaceOnUse">
<stop stop-color="#C04579"/>
<stop offset="1" stop-color="#822D99"/>
</linearGradient>
</defs>
</svg>

<svg width="56" height="57" fill="none" xmlns="http://www.w3.org/2000/svg"><path d="M54.836 28.575c0 14.894-12.074 26.968-26.968 26.968S.9 43.47.9 28.575 12.974 1.607 27.868 1.607s26.968 12.074 26.968 26.968z" stroke="#9B32A5" stroke-opacity=".8" stroke-width="1.8"/><path d="M24.125 37.234c0 .914.749 1.663 1.663 1.663h8.624l-1.106 5.277a1.86 1.86 0 00.506 1.712l1.323 1.324 8.214-8.214a2.48 2.48 0 00.732-1.762V26.428a2.49 2.49 0 00-2.494-2.494H30.36c-1.03 0-1.919.623-2.295 1.52L24.3 34.252c-.108.281-.175.58-.175.905v2.079-.002z" fill="url(#paint0_linear)" fill-opacity=".5"/><path d="M31.956 21.976a1.668 1.668 0 00-1.663-1.663h-8.624l1.106-5.277a1.86 1.86 0 00-.506-1.712L20.945 12l-8.214 8.214A2.483 2.483 0 0012 21.976v10.806a2.49 2.49 0 002.494 2.494H25.72c1.03 0 1.918-.623 2.295-1.52l3.766-8.795c.108-.283.175-.582.175-.906v-2.079z" fill="url(#paint1_linear)"/><defs><linearGradient id="paint0_linear" x1="-23.174" y1=".519" x2="49.983" y2="35.146" gradientUnits="userSpaceOnUse"><stop stop-color="#E9507D"/><stop offset="1" stop-color="#9B32A5"/></linearGradient><linearGradient id="paint1_linear" x1="-35.299" y1="-11.415" x2="37.858" y2="23.213" gradientUnits="userSpaceOnUse"><stop stop-color="#C04579"/><stop offset="1" stop-color="#822D99"/></linearGradient></defs></svg>
